X: 655
T: Miss McLeod's reel
C: anon.
O: Ireland
B: Francis O'Neill: "The Dance Music of Ireland" (1907) no. 655
R: Reel
Z: Transcribed by Frank Nordberg - http://www.musicaviva.com
F: http://www.musicaviva.com/abc/tunes/ireland/oneill-1001/oneill-1001-065
5.abc
M: C|
L: 1/8
K: G
BA|G2BG DGBG|B2BA BcBA|G2BG DGBG|A2AG AcBA|G2BG DGBG|B2BA B2d2|e3f edef|g
edB AcBA||
G2gf edeg|B2BA BcBA|G2gf edeg|a2ag ac'ba|g2gf edeg|BcBA B2d2|edcB cdef|ge
dB A2|]
W:
W:
W: From Musica Viva - http://www.musicaviva.com
W: the Internet center for free sheet music downloads.


